src/hexagon-slack.svg

<?xml version="1.0" encoding="UTF-8"?>
<svg width="190px" height="210px" viewBox="0 0 190 210" version="1.1" xmlns="http://www.w3.org/2000/svg" xmlns:xlink="http://www.w3.org/1999/xlink">
    <!-- Generator: Sketch 43.2 (39069) - http://www.bohemiancoding.com/sketch -->
    <title>hexagon-slack</title>
    <desc>Created with Sketch.</desc>
    <defs></defs>
    <g id="Logo" stroke="none" stroke-width="1" fill="none" fill-rule="evenodd">
        <path d="M179.900651,143.933364 C179.896894,149.457974 176.022503,156.171679 171.240383,158.932637 L103.586843,197.992427 C98.8076649,200.751686 91.0510903,200.750588 86.2669572,197.992802 L18.7059454,159.047658 C13.9196145,156.288606 10.0425734,149.570834 10.046328,144.048761 L10.0993493,66.0666357 C10.1031056,60.5420255 13.977497,53.8283212 18.7596173,51.0673628 L86.4131574,12.0075732 C91.1923351,9.24831368 98.9489097,9.24941241 103.733043,12.0071976 L171.294055,50.9523421 C176.080386,53.7113942 179.957427,60.4291661 179.953672,65.9512395 L179.900651,143.933364 Z M144.71207,119.187591 L144.778872,119.421013 C149.566378,117.864866 152.19394,112.640658 150.568415,107.74991 C148.954023,102.859162 143.721167,100.302635 138.877992,101.858782 L127.365709,105.682458 L119.683431,82.818211 L131.240249,78.9278433 C136.061157,77.3272349 138.677585,72.1030268 137.063193,67.2567402 C135.437668,62.4771456 130.204812,59.8539262 125.37277,61.4767653 L113.827086,65.2559797 L109.818942,53.2514165 C108.215684,48.3828992 102.971694,45.8263718 98.1285189,47.3825189 C93.2742101,49.0498194 90.7134509,54.2740274 92.2721739,59.053622 L96.2803188,70.9470318 L72.5765952,78.9056126 L68.5684503,66.9899721 C67.0097273,62.1881468 61.7768715,59.5538121 56.8780277,61.1877666 C51.979184,62.788375 49.4184247,68.0125831 50.9771478,72.8588697 L54.9852927,84.7522795 L43.4062074,88.5981858 C38.5073637,90.2321403 35.9466044,95.4563483 37.5053274,100.269289 C38.7300384,104.048503 42.2928338,106.438301 45.9669666,106.549454 C47.0246715,106.571685 48.0935102,106.427185 49.1400814,106.071494 L60.6523642,102.181127 L67.9894961,125.067604 L56.4104108,128.957972 C51.6229044,130.514119 48.9508078,135.738327 50.6208682,140.629075 C51.9569165,144.408289 55.4083746,146.853663 59.1938448,146.964817 C60.3072184,146.964817 61.3092546,146.853663 62.4226282,146.520203 L74.0017134,142.629836 L78.0098583,154.634399 C79.3459066,158.413613 82.7973647,160.814526 86.5828349,160.925679 C87.6962085,160.94791 88.6982447,160.80341 89.8116183,160.44772 C94.710462,158.835996 97.2712213,153.611788 95.7124982,148.776616 L91.7043533,136.860976 L115.530548,128.902395 L119.538693,140.818036 C120.874741,144.59725 124.326199,146.998163 128.111669,147.109316 C129.225043,147.142662 130.227079,146.975932 131.340453,146.642472 C136.172494,145.019633 138.788922,139.795425 137.17453,134.971369 L133.166386,123.044613 L144.71207,119.187591 Z M79.0501171,96.8740207 L79.0501171,96.9973034 L102.483792,88.9278891 L110.050117,111.903305 L86.6164418,119.927889 L79.0501171,96.8740207 Z" id="hexagon" fill="#4A4A4A"></path>
    </g>
</svg>

<svg xmlns="http://www.w3.org/2000/svg" width="190" height="210" viewBox="0 0 190 210">
  <path fill="#4A4A4A" fill-rule="evenodd" d="M179.9 143.933c-.003 5.525-3.877 12.24-8.66 15l-67.653 39.06c-4.78 2.76-12.536 2.758-17.32 0l-67.56-38.945c-4.787-2.76-8.664-9.477-8.66-15l.052-77.98c0-5.526 3.87-12.24 8.66-15l67.65-39.06c4.78-2.76 12.53-2.76 17.32 0l67.56 38.944c4.78 2.76 8.66 9.477 8.66 15l-.05 77.98zm-35.188-24.745l.067.233c4.78-1.55 7.41-6.78 5.78-11.67-1.62-4.89-6.85-7.44-11.69-5.89l-11.51 3.83-7.69-22.86 11.554-3.89c4.82-1.6 7.437-6.82 5.822-11.67-1.627-4.78-6.86-7.4-11.69-5.78l-11.544 3.77-4.01-12c-1.603-4.865-6.847-7.422-11.69-5.865-4.855 1.66-7.416 6.89-5.857 11.67l4.007 11.89-23.702 7.96-4.01-11.92c-1.56-4.8-6.79-7.437-11.69-5.8-4.9 1.6-7.46 6.82-5.9 11.67l4 11.89L43.4 88.6c-4.897 1.633-7.457 6.857-5.9 11.67 1.226 3.78 4.79 6.17 8.463 6.28 1.058.023 2.127-.12 3.173-.478l11.512-3.89 7.337 22.888-11.58 3.89c-4.787 1.557-7.46 6.78-5.79 11.67 1.337 3.78 4.788 6.227 8.574 6.338 1.11 0 2.11-.11 3.23-.445L74 142.63l4.008 12.004c1.336 3.78 4.787 6.18 8.573 6.292 1.12.022 2.12-.123 3.23-.478 4.9-1.612 7.46-6.836 5.9-11.67L91.7 136.86l23.83-7.957 4.01 11.916c1.334 3.78 4.785 6.18 8.57 6.29 1.114.03 2.116-.14 3.23-.47 4.83-1.62 7.45-6.85 5.834-11.67l-4.01-11.93 11.547-3.86zM79.05 96.874v.123l23.434-8.07 7.566 22.976-23.434 8.025-7.566-23.054z"/>
</svg>
